T: Old As The Hills
M: 6/8
L: 1/8
K: Amaj
c2c edc | dcd az2 | c2c edc | dcd Bcd |c2c edc | dcd az2 | cee Bcd | cAA A3 || in the second part
